src/ui/resource.svg

<?xml version="1.0" encoding="UTF-8"?><svg xmlns="http://www.w3.org/2000/svg" viewBox="0 0 32 32"><defs><style>.uuid-aa34a30f-abf6-4337-8c79-2aa8896b6c93{fill:none;}.uuid-aa34a30f-abf6-4337-8c79-2aa8896b6c93,.uuid-ddd94b28-5613-4288-b838-b99ca92679f8{stroke-width:0px;}.uuid-ddd94b28-5613-4288-b838-b99ca92679f8{fill:#151515;}</style></defs><g id="uuid-72b9d00e-3e93-4bc1-a1c9-335392a5fcda"><rect class="uuid-aa34a30f-abf6-4337-8c79-2aa8896b6c93" x="0" width="32" height="32"/></g><g id="uuid-b2661a92-8b15-4802-8f34-d59c13212657"><path class="uuid-ddd94b28-5613-4288-b838-b99ca92679f8" d="M26.5,1h-14.5c-.134,0-.265.0273-.3861.078-.1215.0509-.2306.1247-.3221.2166-.0004.0004-.0009.0005-.0013.0009l-6.8549,6.9013c-.2569.181-.4356.4651-.4356.8033,0,.0083.0046.0152.0048.0234-.0002.0082-.0048.0156-.0048.0239v20.4526c0,.8271.6729,1.5,1.5,1.5h21c.8271,0,1.5-.6729,1.5-1.5V2.5c0-.8271-.6729-1.5-1.5-1.5ZM11,4.4256v3.5744h-3.5504l3.5504-3.5744ZM26,29H6V10h5.5c.8271,0,1.5-.6729,1.5-1.5V3h13v26Z"/><path class="uuid-ddd94b28-5613-4288-b838-b99ca92679f8" d="M10,14c-.5522,0-1,.4478-1,1s.4478,1,1,1h6c.5522,0,1-.4478,1-1s-.4478-1-1-1h-6Z"/><path class="uuid-ddd94b28-5613-4288-b838-b99ca92679f8" d="M9,20c0,.5522.4478,1,1,1h12c.5522,0,1-.4478,1-1s-.4478-1-1-1h-12c-.5522,0-1,.4478-1,1Z"/><path class="uuid-ddd94b28-5613-4288-b838-b99ca92679f8" d="M22,24h-12c-.5522,0-1,.4478-1,1s.4478,1,1,1h12c.5522,0,1-.4478,1-1s-.4478-1-1-1Z"/></g></svg>

<svg xmlns="http://www.w3.org/2000/svg" viewBox="0 0 32 32">
  <defs>
    <style>
      .uuid-ddd94b28-5613-4288-b838-b99ca92679f8{stroke-width:0;fill:#151515}
    </style>
  </defs>
  <path d="M0 0h32v32H0z" id="uuid-72b9d00e-3e93-4bc1-a1c9-335392a5fcda" stroke-width="0" fill="none"/>
  <g id="uuid-b2661a92-8b15-4802-8f34-d59c13212657">
    <path class="uuid-ddd94b28-5613-4288-b838-b99ca92679f8" d="M26.5 1H12a1 1 0 0 0-.708.295h-.002L4.436 8.197A.982.982 0 0 0 4 9c0 .008.005.015.005.023 0 .009-.005.016-.005.024V29.5c0 .827.673 1.5 1.5 1.5h21c.827 0 1.5-.673 1.5-1.5v-27c0-.827-.673-1.5-1.5-1.5ZM11 4.426V8H7.45L11 4.426ZM26 29H6V10h5.5c.827 0 1.5-.673 1.5-1.5V3h13v26Z"/>
    <path class="uuid-ddd94b28-5613-4288-b838-b99ca92679f8" d="M10 14a1 1 0 0 0 0 2h6a1 1 0 0 0 0-2h-6Zm-1 6a1 1 0 0 0 1 1h12a1 1 0 0 0 0-2H10a1 1 0 0 0-1 1Zm13 4H10a1 1 0 0 0 0 2h12a1 1 0 0 0 0-2Z"/>
  </g>
</svg>
